remix/Design/clockwise-2-fill.svg

<svg viewBox="0 0 24 24" fill="currentColor" xmlns="http://www.w3.org/2000/svg"><path d="M10 4V1L15 5L10 9V6H8C6.34315 6 5 7.34315 5 9V13H3V9C3 6.23858 5.23858 4 8 4H10ZM9 11C9 10.4477 9.44772 10 10 10H20C20.5523 10 21 10.4477 21 11V21C21 21.5523 20.5523 22 20 22H10C9.44772 22 9 21.5523 9 21V11Z"/></svg>

<svg viewBox="0 0 24 24" xmlns="http://www.w3.org/2000/svg"><path fill="none" d="M0 0h24v24H0Z"/><path d="M10 4V1l5 4 -5 4V6H8v0C6.34 6 5 7.34 5 9v4H3V9v0c0-2.77 2.23-5 5-5h2Zm-1 7v0c0-.56.44-1 1-1h10v0c.55 0 1 .44 1 1v10 0c0 .55-.45 1-1 1H10v0c-.56 0-1-.45-1-1V11Z"/></svg>
